icon-themes/breeze_svg/cmd/lc_open.svg

<svg viewBox="0 0 24 24" xmlns="http://www.w3.org/2000/svg"><path d="m4 4v1 15h1 15v-1-13h-6.992188l-2-2-.007812.0078125v-.0078125h-6zm6.007812 5h8.992188v10h-14v-8h3v-.007812l.0078125.007812z" fill="#4d4d4d"/></svg>

<svg xmlns="http://www.w3.org/2000/svg" viewBox="0 0 24 24">
 <path 
     style="fill:#4d4d4d" 
     d="M 4 4 L 4 5 L 4 20 L 5 20 L 20 20 L 20 19 L 20 6 L 13.007812 6 L 11.007812 4 L 11 4.0078125 L 11 4 L 5 4 L 4 4 z M 10.007812 9 L 19 9 L 19 19 L 5 19 L 5 11 L 8 11 L 8 10.992188 L 8.0078125 11 L 10.007812 9 z "
     />
 </svg>
